img/ribbon-overlay.svg

<?xml version="1.0" encoding="UTF-8"?>
<svg width="120" height="32" version="1.1" viewBox="0 0 120 32" xmlns="http://www.w3.org/2000/svg">
	<g transform="matrix(1.6294 0 0 1.6294 0 -891.34)" fill-rule="evenodd">
		<g transform="matrix(.015522 0 0 .6772 0 546.35)">
			<path d="m0 29h106v1h-106z" opacity=".25"/>
			<path d="m0 27h106v1h-106z" opacity=".25"/>
			<path d="m0 25h106v1h-106z" opacity=".25"/>
			<path d="m0 23h106v1h-106z" opacity=".25"/>
			<path d="m0 21h106v1h-106z" opacity=".25"/>
			<path d="m0 19h106v1h-106z" opacity=".25"/>
			<path d="m0 17h106v1h-106z" opacity=".25"/>
			<path d="m0 15h106v1h-106z" opacity=".25"/>
			<path d="m0 13h106v1h-106z" opacity=".25"/>
			<path d="m0 11h106v1h-106z" opacity=".25"/>
			<path d="m0 9h106v1h-106z" opacity=".25"/>
			<path d="m0 7h106v1h-106z" opacity=".25"/>
			<path d="m0 5h106v1h-106z" opacity=".25"/>
			<path d="m0 3h106v1h-106z" opacity=".25"/>
			<path d="m0 1h106v1h-106z" opacity=".25"/>
		</g>
		<g transform="matrix(.015522 0 0 .6772 72 546.35)">
			<path d="m0 29h106v1h-106z" opacity=".25"/>
			<path d="m0 27h106v1h-106z" opacity=".25"/>
			<path d="m0 25h106v1h-106z" opacity=".25"/>
			<path d="m0 23h106v1h-106z" opacity=".25"/>
			<path d="m0 21h106v1h-106z" opacity=".25"/>
			<path d="m0 19h106v1h-106z" opacity=".25"/>
			<path d="m0 17h106v1h-106z" opacity=".25"/>
			<path d="m0 15h106v1h-106z" opacity=".25"/>
			<path d="m0 13h106v1h-106z" opacity=".25"/>
			<path d="m0 11h106v1h-106z" opacity=".25"/>
			<path d="m0 9h106v1h-106z" opacity=".25"/>
			<path d="m0 7h106v1h-106z" opacity=".25"/>
			<path d="m0 5h106v1h-106z" opacity=".25"/>
			<path d="m0 3h106v1h-106z" opacity=".25"/>
			<path d="m0 1h106v1h-106z" opacity=".25"/>
		</g>
		<g transform="matrix(.66372 0 0 .6772 1.6453 545.67)">
			<path d="m0 29h106v1h-106z" opacity=".25"/>
			<path d="m0 27h106v1h-106z" opacity=".25"/>
			<path d="m0 25h106v1h-106z" opacity=".25"/>
			<path d="m0 23h106v1h-106z" opacity=".25"/>
			<path d="m0 21h106v1h-106z" opacity=".25"/>
			<path d="m0 19h106v1h-106z" opacity=".25"/>
			<path d="m0 17h106v1h-106z" opacity=".25"/>
			<path d="m0 15h106v1h-106z" opacity=".25"/>
			<path d="m0 13h106v1h-106z" opacity=".25"/>
			<path d="m0 11h106v1h-106z" opacity=".25"/>
			<path d="m0 9h106v1h-106z" opacity=".25"/>
			<path d="m0 7h106v1h-106z" opacity=".25"/>
			<path d="m0 5h106v1h-106z" opacity=".25"/>
			<path d="m0 3h106v1h-106z" opacity=".25"/>
		</g>
	</g>
</svg>

<?xml version="1.0" encoding="UTF-8" standalone="no"?>
<!-- Created with Inkscape (http://www.inkscape.org/) -->

<svg
   width="120"
   height="32"
   viewBox="0 0 120 32"
   version="1.1"
   id="svg3369"
   inkscape:version="1.2.1 (9c6d41e410, 2022-07-14)"
   sodipodi:docname="ribbon-overlay.svg"
   xmlns:inkscape="http://www.inkscape.org/namespaces/inkscape"
   xmlns:sodipodi="http://sodipodi.sourceforge.net/DTD/sodipodi-0.dtd"
   xmlns="http://www.w3.org/2000/svg"
   xmlns:svg="http://www.w3.org/2000/svg">
  <sodipodi:namedview
     id="namedview3371"
     pagecolor="#505050"
     bordercolor="#eeeeee"
     borderopacity="1"
     inkscape:showpageshadow="0"
     inkscape:pageopacity="0"
     inkscape:pagecheckerboard="0"
     inkscape:deskcolor="#505050"
     inkscape:document-units="px"
     showgrid="false"
     inkscape:zoom="10.099009"
     inkscape:cx="56.193635"
     inkscape:cy="10.991178"
     inkscape:window-width="2560"
     inkscape:window-height="1387"
     inkscape:window-x="1912"
     inkscape:window-y="892"
     inkscape:window-maximized="1"
     inkscape:current-layer="layer1" />
  <defs
     id="defs3366" />
  <g
     inkscape:label="Layer 1"
     inkscape:groupmode="layer"
     id="layer1">
    <g
       transform="matrix(1.6294348,0,0,1.6294348,0,-891.34363)"
       id="g3214">
      <g
         id="g2329"
         transform="matrix(0.01552154,0,0,0.67719603,0,546.34908)">
        <path
           inkscape:connector-curvature="0"
           id="path3508"
           style="opacity:0.25;fill:#000000;fill-opacity:1;fill-rule:evenodd;stroke:none"
           d="m 0,29 h 106 v 1 H 0 Z" />
        <path
           inkscape:connector-curvature="0"
           id="path3510"
           style="opacity:0.25;fill:#000000;fill-opacity:1;fill-rule:evenodd;stroke:none"
           d="m 0,27 h 106 v 1 H 0 Z" />
        <path
           inkscape:connector-curvature="0"
           id="path3512"
           style="opacity:0.25;fill:#000000;fill-opacity:1;fill-rule:evenodd;stroke:none"
           d="m 0,25 h 106 v 1 H 0 Z" />
        <path
           inkscape:connector-curvature="0"
           id="path3514"
           style="opacity:0.25;fill:#000000;fill-opacity:1;fill-rule:evenodd;stroke:none"
           d="m 0,23 h 106 v 1 H 0 Z" />
        <path
           inkscape:connector-curvature="0"
           id="path3516"
           style="opacity:0.25;fill:#000000;fill-opacity:1;fill-rule:evenodd;stroke:none"
           d="m 0,21 h 106 v 1 H 0 Z" />
        <path
           inkscape:connector-curvature="0"
           id="path3518"
           style="opacity:0.25;fill:#000000;fill-opacity:1;fill-rule:evenodd;stroke:none"
           d="m 0,19 h 106 v 1 H 0 Z" />
        <path
           inkscape:connector-curvature="0"
           id="path3520"
           style="opacity:0.25;fill:#000000;fill-opacity:1;fill-rule:evenodd;stroke:none"
           d="m 0,17 h 106 v 1 H 0 Z" />
        <path
           inkscape:connector-curvature="0"
           id="path3522"
           style="opacity:0.25;fill:#000000;fill-opacity:1;fill-rule:evenodd;stroke:none"
           d="m 0,15 h 106 v 1 H 0 Z" />
        <path
           inkscape:connector-curvature="0"
           id="path3524"
           style="opacity:0.25;fill:#000000;fill-opacity:1;fill-rule:evenodd;stroke:none"
           d="m 0,13 h 106 v 1 H 0 Z" />
        <path
           inkscape:connector-curvature="0"
           id="path3526"
           style="opacity:0.25;fill:#000000;fill-opacity:1;fill-rule:evenodd;stroke:none"
           d="m 0,11 h 106 v 1 H 0 Z" />
        <path
           inkscape:connector-curvature="0"
           id="path3528"
           style="opacity:0.25;fill:#000000;fill-opacity:1;fill-rule:evenodd;stroke:none"
           d="m 0,9 h 106 v 1 H 0 Z" />
        <path
           inkscape:connector-curvature="0"
           id="path3530"
           style="opacity:0.25;fill:#000000;fill-opacity:1;fill-rule:evenodd;stroke:none"
           d="M 0,7 H 106 V 8 H 0 Z" />
        <path
           inkscape:connector-curvature="0"
           id="path3532"
           style="opacity:0.25;fill:#000000;fill-opacity:1;fill-rule:evenodd;stroke:none"
           d="M 0,5 H 106 V 6 H 0 Z" />
        <path
           inkscape:connector-curvature="0"
           id="path3534"
           style="opacity:0.25;fill:#000000;fill-opacity:1;fill-rule:evenodd;stroke:none"
           d="M 0,3 H 106 V 4 H 0 Z" />
        <path
           inkscape:connector-curvature="0"
           id="path3536"
           style="opacity:0.25;fill:#000000;fill-opacity:1;fill-rule:evenodd;stroke:none"
           d="M 0,1 H 106 V 2 H 0 Z" />
      </g>
      <g
         id="g2329-1"
         transform="matrix(0.01552154,0,0,0.67719603,71.999885,546.34907)">
        <path
           inkscape:connector-curvature="0"
           id="path3508-7"
           style="opacity:0.25;fill:#000000;fill-opacity:1;fill-rule:evenodd;stroke:none"
           d="m 0,29 h 106 v 1 H 0 Z" />
        <path
           inkscape:connector-curvature="0"
           id="path3510-4"
           style="opacity:0.25;fill:#000000;fill-opacity:1;fill-rule:evenodd;stroke:none"
           d="m 0,27 h 106 v 1 H 0 Z" />
        <path
           inkscape:connector-curvature="0"
           id="path3512-0"
           style="opacity:0.25;fill:#000000;fill-opacity:1;fill-rule:evenodd;stroke:none"
           d="m 0,25 h 106 v 1 H 0 Z" />
        <path
           inkscape:connector-curvature="0"
           id="path3514-9"
           style="opacity:0.25;fill:#000000;fill-opacity:1;fill-rule:evenodd;stroke:none"
           d="m 0,23 h 106 v 1 H 0 Z" />
        <path
           inkscape:connector-curvature="0"
           id="path3516-4"
           style="opacity:0.25;fill:#000000;fill-opacity:1;fill-rule:evenodd;stroke:none"
           d="m 0,21 h 106 v 1 H 0 Z" />
        <path
           inkscape:connector-curvature="0"
           id="path3518-8"
           style="opacity:0.25;fill:#000000;fill-opacity:1;fill-rule:evenodd;stroke:none"
           d="m 0,19 h 106 v 1 H 0 Z" />
        <path
           inkscape:connector-curvature="0"
           id="path3520-8"
           style="opacity:0.25;fill:#000000;fill-opacity:1;fill-rule:evenodd;stroke:none"
           d="m 0,17 h 106 v 1 H 0 Z" />
        <path
           inkscape:connector-curvature="0"
           id="path3522-2"
           style="opacity:0.25;fill:#000000;fill-opacity:1;fill-rule:evenodd;stroke:none"
           d="m 0,15 h 106 v 1 H 0 Z" />
        <path
           inkscape:connector-curvature="0"
           id="path3524-4"
           style="opacity:0.25;fill:#000000;fill-opacity:1;fill-rule:evenodd;stroke:none"
           d="m 0,13 h 106 v 1 H 0 Z" />
        <path
           inkscape:connector-curvature="0"
           id="path3526-5"
           style="opacity:0.25;fill:#000000;fill-opacity:1;fill-rule:evenodd;stroke:none"
           d="m 0,11 h 106 v 1 H 0 Z" />
        <path
           inkscape:connector-curvature="0"
           id="path3528-5"
           style="opacity:0.25;fill:#000000;fill-opacity:1;fill-rule:evenodd;stroke:none"
           d="m 0,9 h 106 v 1 H 0 Z" />
        <path
           inkscape:connector-curvature="0"
           id="path3530-1"
           style="opacity:0.25;fill:#000000;fill-opacity:1;fill-rule:evenodd;stroke:none"
           d="M 0,7 H 106 V 8 H 0 Z" />
        <path
           inkscape:connector-curvature="0"
           id="path3532-7"
           style="opacity:0.25;fill:#000000;fill-opacity:1;fill-rule:evenodd;stroke:none"
           d="M 0,5 H 106 V 6 H 0 Z" />
        <path
           inkscape:connector-curvature="0"
           id="path3534-1"
           style="opacity:0.25;fill:#000000;fill-opacity:1;fill-rule:evenodd;stroke:none"
           d="M 0,3 H 106 V 4 H 0 Z" />
        <path
           inkscape:connector-curvature="0"
           id="path3536-1"
           style="opacity:0.25;fill:#000000;fill-opacity:1;fill-rule:evenodd;stroke:none"
           d="M 0,1 H 106 V 2 H 0 Z" />
      </g>
      <g
         id="g2329-1-5"
         transform="matrix(0.66372266,0,0,0.67719603,1.645283,545.67245)">
        <path
           inkscape:connector-curvature="0"
           id="path3508-7-2"
           style="opacity:0.25;fill:#000000;fill-opacity:1;fill-rule:evenodd;stroke:none"
           d="m 0,29 h 106 v 1 H 0 Z" />
        <path
           inkscape:connector-curvature="0"
           id="path3510-4-7"
           style="opacity:0.25;fill:#000000;fill-opacity:1;fill-rule:evenodd;stroke:none"
           d="m 0,27 h 106 v 1 H 0 Z" />
        <path
           inkscape:connector-curvature="0"
           id="path3512-0-6"
           style="opacity:0.25;fill:#000000;fill-opacity:1;fill-rule:evenodd;stroke:none"
           d="m 0,25 h 106 v 1 H 0 Z" />
        <path
           inkscape:connector-curvature="0"
           id="path3514-9-1"
           style="opacity:0.25;fill:#000000;fill-opacity:1;fill-rule:evenodd;stroke:none"
           d="m 0,23 h 106 v 1 H 0 Z" />
        <path
           inkscape:connector-curvature="0"
           id="path3516-4-4"
           style="opacity:0.25;fill:#000000;fill-opacity:1;fill-rule:evenodd;stroke:none"
           d="m 0,21 h 106 v 1 H 0 Z" />
        <path
           inkscape:connector-curvature="0"
           id="path3518-8-2"
           style="opacity:0.25;fill:#000000;fill-opacity:1;fill-rule:evenodd;stroke:none"
           d="m 0,19 h 106 v 1 H 0 Z" />
        <path
           inkscape:connector-curvature="0"
           id="path3520-8-3"
           style="opacity:0.25;fill:#000000;fill-opacity:1;fill-rule:evenodd;stroke:none"
           d="m 0,17 h 106 v 1 H 0 Z" />
        <path
           inkscape:connector-curvature="0"
           id="path3522-2-2"
           style="opacity:0.25;fill:#000000;fill-opacity:1;fill-rule:evenodd;stroke:none"
           d="m 0,15 h 106 v 1 H 0 Z" />
        <path
           inkscape:connector-curvature="0"
           id="path3524-4-2"
           style="opacity:0.25;fill:#000000;fill-opacity:1;fill-rule:evenodd;stroke:none"
           d="m 0,13 h 106 v 1 H 0 Z" />
        <path
           inkscape:connector-curvature="0"
           id="path3526-5-1"
           style="opacity:0.25;fill:#000000;fill-opacity:1;fill-rule:evenodd;stroke:none"
           d="m 0,11 h 106 v 1 H 0 Z" />
        <path
           inkscape:connector-curvature="0"
           id="path3528-5-6"
           style="opacity:0.25;fill:#000000;fill-opacity:1;fill-rule:evenodd;stroke:none"
           d="m 0,9 h 106 v 1 H 0 Z" />
        <path
           inkscape:connector-curvature="0"
           id="path3530-1-8"
           style="opacity:0.25;fill:#000000;fill-opacity:1;fill-rule:evenodd;stroke:none"
           d="M 0,7 H 106 V 8 H 0 Z" />
        <path
           inkscape:connector-curvature="0"
           id="path3532-7-5"
           style="opacity:0.25;fill:#000000;fill-opacity:1;fill-rule:evenodd;stroke:none"
           d="M 0,5 H 106 V 6 H 0 Z" />
        <path
           inkscape:connector-curvature="0"
           id="path3534-1-7"
           style="opacity:0.25;fill:#000000;fill-opacity:1;fill-rule:evenodd;stroke:none"
           d="M 0,3 H 106 V 4 H 0 Z" />
      </g>
    </g>
  </g>
</svg>
